Papirus/32x32/apps/GP6-icon.svg

<svg xmlns="http://www.w3.org/2000/svg" width="32" height="32" version="1">
 <path style="opacity:0.2" d="M 25.07233,25.439118 C 19.099285,32.229169 13.893246,32.037168 10.319219,28.922144 4.9549792,24.247109 -0.00785803,7.262982 2.8218632,4.0469577 5.6510844,0.83063356 23.460018,5.7244703 27.278046,9.284097 c 3.818629,3.559727 4.080931,9.007468 -2.206216,16.155121 z"/>
 <path style="fill:#285b1f" d="M 25.07233,24.439198 C 19.099285,31.229249 13.893246,31.037248 10.319219,27.922224 4.9549792,23.247189 -0.00785803,6.2630622 2.8218632,3.0470379 5.6510844,-0.16928619 23.460018,4.7245505 27.278046,8.2841772 31.096675,11.843904 31.358977,17.291645 25.07183,24.439298 Z"/>
 <path style="opacity:0.2" d="M 12.517578,13 C 11.102321,13 9.9959065,13.397318 9.1953125,14.191406 8.3987615,14.981578 8,16.086184 8,17.503906 8,18.917712 8.3987615,20.020366 9.1953125,20.814453 9.9959515,21.604668 11.102366,22 12.517578,22 13.16454,22 13.773605,21.918549 14.34375,21.755859 14.913896,21.589278 15.52693,21.344936 16,21.023438 L 16,17 l -3,0 0,1 1.996094,0 0,2.59375 c -0.270923,0.151068 -0.576363,0.264296 -0.916016,0.337891 -0.339639,0.06972 -1.026329,0.103515 -1.458984,0.103515 -1.107903,0 -2.19003,-0.296022 -2.7480471,-0.888672 C 9.3190719,19.553833 9,18.673714 9,17.503906 c 0,-1.173682 0.3190729,-2.05774 0.8730469,-2.65039 0.5580171,-0.592651 1.6401441,-0.888672 2.7480471,-0.888672 0.561971,0 0.94762,0.0934 1.457031,0.279297 0.509412,0.185903 0.968615,0.462146 1.421875,0.830078 l 0,-1.25 C 15.051187,13.553072 14.582587,13.348428 14.048828,13.208984 13.519156,13.06954 13.107939,13 12.517578,13 Z M 18,13 l 0,9 1,0 0,-3 1.765625,0 c 1.014874,-0.0091 1.931631,-0.204889 2.449219,-0.642578 0.52163,-0.437688 0.78125,-1.384178 0.78125,-2.240234 0,-0.84831 -0.25962,-1.991999 -0.78125,-2.429688 C 22.697256,13.245939 21.78054,13 20.765625,13 Z m 1,1.001953 1.851562,0 c 0.684533,-0.01817 1.213876,0.138106 1.587891,0.416016 C 22.813467,14.695883 23,15.585551 23,16.095703 c 0,0.513963 -0.186533,1.21037 -0.560547,1.488281 C 22.065438,17.861895 21.536455,18 20.851562,18 L 19,18 Z"/>
 <path style="fill:#daff60" d="M 12.517578,12 C 11.102321,12 9.9959065,12.397318 9.1953125,13.191406 8.3987615,13.981578 8,15.086184 8,16.503906 8,17.917712 8.3987615,19.020366 9.1953125,19.814453 9.9959515,20.604668 11.102366,21 12.517578,21 13.16454,21 13.773605,20.918549 14.34375,20.755859 14.913896,20.589278 15.52693,20.344936 16,20.023438 L 16,16 l -3,0 0,1 1.996094,0 0,2.59375 c -0.270923,0.151068 -0.576363,0.264296 -0.916016,0.337891 -0.339639,0.06972 -1.026329,0.103515 -1.458984,0.103515 -1.107903,0 -2.19003,-0.296022 -2.7480471,-0.888672 C 9.3190719,18.553833 9,17.673714 9,16.503906 c 0,-1.173682 0.3190729,-2.05774 0.8730469,-2.65039 0.5580171,-0.592651 1.6401441,-0.888672 2.7480471,-0.888672 0.561971,0 0.94762,0.0934 1.457031,0.279297 0.509412,0.185903 0.968615,0.462146 1.421875,0.830078 l 0,-1.25 C 15.051187,12.553072 14.582587,12.348428 14.048828,12.208984 13.519156,12.06954 13.107939,12 12.517578,12 Z M 18,12 l 0,9 1,0 0,-3 1.765625,0 c 1.014874,-0.0091 1.931631,-0.204889 2.449219,-0.642578 0.52163,-0.437688 0.78125,-1.384178 0.78125,-2.240234 0,-0.84831 -0.25962,-1.991999 -0.78125,-2.429688 C 22.697256,12.245939 21.78054,12 20.765625,12 Z m 1,1.001953 1.851562,0 c 0.684533,-0.01817 1.213876,0.138106 1.587891,0.416016 C 22.813467,13.695883 23,14.585551 23,15.095703 c 0,0.513963 -0.186533,1.21037 -0.560547,1.488281 C 22.065438,16.861895 21.536455,17 20.851562,17 L 19,17 Z"/>
 <path style="fill:#ffffff;opacity:0.1" d="M 7.3007812 2.0078125 C 5.1736778 1.9456917 3.5295709 2.242794 2.8222656 3.046875 C 2.2027995 3.7509083 1.9755061 5.1385883 2.0253906 6.8886719 C 2.081992 5.6174083 2.3257338 4.6111915 2.8222656 4.046875 C 5.6514868 0.83055086 23.459316 5.7235764 27.277344 9.2832031 C 28.877785 10.775135 29.843907 12.604726 29.974609 14.746094 C 30.126707 12.16713 29.12169 10.002504 27.277344 8.2832031 C 24.413823 5.6134831 13.682092 2.1941748 7.3007812 2.0078125 z"/>
</svg>

<svg xmlns="http://www.w3.org/2000/svg" width="32" height="32" version="1">
 <path style="opacity:0.2" d="M 25.07233,25.439118 C 19.099285,32.229169 13.893246,32.037168 10.319219,28.922144 4.9549792,24.247109 -0.00785803,7.262982 2.8218632,4.0469577 5.6510844,0.83063356 23.460018,5.7244703 27.278046,9.284097 c 3.818629,3.559727 4.080931,9.007468 -2.206216,16.155121 z"/>
 <path style="fill:#4f4f4f" d="M 25.07233,24.439198 C 19.099285,31.229249 13.893246,31.037248 10.319219,27.922224 4.9549792,23.247189 -0.00785803,6.2630622 2.8218632,3.0470379 5.6510844,-0.16928619 23.460018,4.7245505 27.278046,8.2841772 31.096675,11.843904 31.358977,17.291645 25.07183,24.439298 Z"/>
 <path style="opacity:0.2" d="M 12.517578,13 C 11.102321,13 9.9959065,13.397318 9.1953125,14.191406 8.3987615,14.981578 8,16.086184 8,17.503906 8,18.917712 8.3987615,20.020366 9.1953125,20.814453 9.9959515,21.604668 11.102366,22 12.517578,22 13.16454,22 13.773605,21.918549 14.34375,21.755859 14.913896,21.589278 15.52693,21.344936 16,21.023438 L 16,17 l -3,0 0,1 1.996094,0 0,2.59375 c -0.270923,0.151068 -0.576363,0.264296 -0.916016,0.337891 -0.339639,0.06972 -1.026329,0.103515 -1.458984,0.103515 -1.107903,0 -2.19003,-0.296022 -2.7480471,-0.888672 C 9.3190719,19.553833 9,18.673714 9,17.503906 c 0,-1.173682 0.3190729,-2.05774 0.8730469,-2.65039 0.5580171,-0.592651 1.6401441,-0.888672 2.7480471,-0.888672 0.561971,0 0.94762,0.0934 1.457031,0.279297 0.509412,0.185903 0.968615,0.462146 1.421875,0.830078 l 0,-1.25 C 15.051187,13.553072 14.582587,13.348428 14.048828,13.208984 13.519156,13.06954 13.107939,13 12.517578,13 Z M 18,13 l 0,9 1,0 0,-3 1.765625,0 c 1.014874,-0.0091 1.931631,-0.204889 2.449219,-0.642578 0.52163,-0.437688 0.78125,-1.384178 0.78125,-2.240234 0,-0.84831 -0.25962,-1.991999 -0.78125,-2.429688 C 22.697256,13.245939 21.78054,13 20.765625,13 Z m 1,1.001953 1.851562,0 c 0.684533,-0.01817 1.213876,0.138106 1.587891,0.416016 C 22.813467,14.695883 23,15.585551 23,16.095703 c 0,0.513963 -0.186533,1.21037 -0.560547,1.488281 C 22.065438,17.861895 21.536455,18 20.851562,18 L 19,18 Z"/>
 <path style="fill:#ffffff" d="M 12.517578,12 C 11.102321,12 9.9959065,12.397318 9.1953125,13.191406 8.3987615,13.981578 8,15.086184 8,16.503906 8,17.917712 8.3987615,19.020366 9.1953125,19.814453 9.9959515,20.604668 11.102366,21 12.517578,21 13.16454,21 13.773605,20.918549 14.34375,20.755859 14.913896,20.589278 15.52693,20.344936 16,20.023438 V 16 h -3 v 1 h 1.996094 v 2.59375 c -0.270923,0.151068 -0.576363,0.264296 -0.916016,0.337891 -0.339639,0.06972 -1.026329,0.103515 -1.458984,0.103515 -1.107903,0 -2.19003,-0.296022 -2.7480471,-0.888672 C 9.3190719,18.553833 9,17.673714 9,16.503906 c 0,-1.173682 0.3190729,-2.05774 0.8730469,-2.65039 0.5580171,-0.592651 1.6401441,-0.888672 2.7480471,-0.888672 0.561971,0 0.94762,0.0934 1.457031,0.279297 0.509412,0.185903 0.968615,0.462146 1.421875,0.830078 v -1.25 C 15.051187,12.553072 14.582587,12.348428 14.048828,12.208984 13.519156,12.06954 13.107939,12 12.517578,12 Z"/>
 <path style="fill:#f14649" d="M 18 12 L 18 21 L 19 21 L 19 18 L 20.765625 18 C 21.780499 17.9909 22.697256 17.795111 23.214844 17.357422 C 23.736474 16.919734 23.996094 15.973244 23.996094 15.117188 C 23.996094 14.268878 23.736474 13.125189 23.214844 12.6875 C 22.697256 12.245939 21.78054 12 20.765625 12 L 18 12 z M 19 13.001953 L 20.851562 13.001953 C 21.536095 12.983783 22.065438 13.140059 22.439453 13.417969 C 22.813467 13.695883 23 14.585551 23 15.095703 C 23 15.609666 22.813467 16.306073 22.439453 16.583984 C 22.065438 16.861895 21.536455 17 20.851562 17 L 19 17 L 19 13.001953 z"/>
 <path style="fill:#ffffff;opacity:0.1" d="M 7.3007812 2.0078125 C 5.1736778 1.9456917 3.5295709 2.242794 2.8222656 3.046875 C 2.2027995 3.7509083 1.9755061 5.1385883 2.0253906 6.8886719 C 2.081992 5.6174083 2.3257338 4.6111915 2.8222656 4.046875 C 5.6514868 0.83055086 23.459316 5.7235764 27.277344 9.2832031 C 28.877785 10.775135 29.843907 12.604726 29.974609 14.746094 C 30.126707 12.16713 29.12169 10.002504 27.277344 8.2832031 C 24.413823 5.6134831 13.682092 2.1941748 7.3007812 2.0078125 z"/>
</svg>
